elements/app-hax/lib/assets/images/Boat.svg

<svg xmlns="http://www.w3.org/2000/svg" fill="none" width="987" height="641" viewBox="0 0 987 641"><path d="M0 0h987v641H0z" fill="#fff"/><path d="M242 448h76v19h38v19h76v38h111v-19h37.5v-19H619v-19h76v19h-38v19h-38v57h-76v19H394v-19l-114 .5V524h-38v-76Zm453 0h38v19h-38v-19Zm38-19h38v19h-38v-19Zm38-19h38v19h-38v-19Z" fill="#A97E53"/><path d="M581 524h38v19h-38v-19Zm38-19h38v19h-38v-19Zm38-19h38v19h-38v-19Zm-453-95h38v38h-38v-38Zm0 57h38v38h-38v-38Zm76 0h38v19h-38v-19Zm38 19h38v19h-38v-19Zm-76-38h38v19h-38v-19Zm38 76h38v19h-38v-19Zm38 19h38v19h-38v-19Zm38-19h38v19h-38v-19Zm-114-19h38v19h-38v-19Zm339-19h38v19h-38v-19Zm38-19h38v19h-38v-19Zm38-19h38v19h-38v-19Zm-114 57h38v19h-38v-19Zm-38 19h38v19h-38v-19Z" fill="#F27E43"/><path d="M242 410h38v19h-38v-19Zm38 19h38v19h-38v-19Zm38 19h76v19h-76v-19Zm76 19h38v19h-38v-19Zm-152 57h38v19h-38v-19Zm38 38h114v19H280v-19Zm263 0h76v19h-76v-19Zm-149 19h149v19H394v-19Zm-133-38h19v19h-19v-19Zm114-76h19v19h-19v-19Zm244 76h19v19h-19v-19Zm0-19h38v19h-38v-19Zm-187-38h19v38h-19v-38Zm19 0h19v19h-19v-19Z" fill="#CBA45B"/><path d="M751 407.5h-11v-39h-15v-4h-16V336h-17.5v-8.5H673v-30h-16.5v-6h-16V264H623v-5h-15v-30h-18.5m-342 139h17v-18h13l2.5-9h19v-25h15.5v-6.5h18v-21H349V282h19v-23h15v-9.5h18.5v-24h16V219H436v-24h17" stroke="#000" stroke-width="2"/><path d="M413 211h10v29h-10v-29Zm334 180h10v38h-10v-38ZM448 182h10v29h-10v-29Zm-70 58h10v29h-10v-29Zm-34 29h10v29h-10v-29Zm-34 29h10v29h-10v-29Zm-34 29h10v29h-10v-29Zm-34 29h10v54h-10v-54Zm477-6h10v30h-10v-30Zm-34-35h10v30h-10v-30Zm-34-35h10v30h-10v-30Zm-34-35h10v30h-10v-30Zm-34-35h10v30h-10v-30Z" fill="#CBA45B"/><path d="M551 220h38v38h-38z" fill="#E2E2E2"/><path d="M445 456h10v30h-10zm0-30h10v30h-10zm0-30h10v30h-10zm0-30h10v30h-10zm0-30h10v30h-10z" fill="#FDE595"/><path d="M445 352.5v-10h30v10h-30Zm0 17v-10h30v10h-30Zm0 20v-10h30v10h-30Zm0 19v-10h30v10h-30Zm0 20v-10h30v10h-30Zm0 18v-10h30v10h-30Zm0 17v-10h30v10h-30Zm0 17v-10h30v10h-30Z" fill="#FDE595"/><path d="M470 448h38v76.5h-38V448Z" fill="#C4C4C4"/><path d="M470 448h38v76.5h-38V448Z" fill="#99724C"/><path d="M470 410h38v38h-38v-38Z" fill="#C4C4C4"/><path d="M470 410h38v38h-38v-38Z" fill="#99724C"/><path d="M470 372h38v38h-38v-38Z" fill="#C4C4C4"/><path d="M470 372h38v38h-38v-38Z" fill="#99724C"/><path d="M470 334h38v38h-38v-38Z" fill="#C4C4C4"/><path d="M470 334h38v38h-38v-38Z" fill="#99724C"/><path d="M470 296h38v38h-38v-38Z" fill="#C4C4C4"/><path d="M470 296h38v38h-38v-38Z" fill="#99724C"/><path d="M470 258h38v38h-38v-38Z" fill="#C4C4C4"/><path d="M470 258h38v38h-38v-38Z" fill="#99724C"/><path d="M507 258h38v38h-38v-38Z" fill="#C4C4C4"/><path d="M507 258h38v38h-38v-38Z" fill="#99724C"/><path d="M507 220h38v38h-38v-38Z" fill="#C4C4C4"/><path d="M507 220h38v38h-38v-38Z" fill="#99724C"/><path d="M507 182h38v38h-38v-38Z" fill="#C4C4C4"/><path d="M507 182h38v38h-38v-38Z" fill="#99724C"/><path d="M507 144h38v38h-38v-38Z" fill="#C4C4C4"/><path d="M507 144h38v38h-38v-38Z" fill="#99724C"/><path d="M507 106h38v38h-38v-38Z" fill="#C4C4C4"/><path d="M507 106h38v38h-38v-38Z" fill="#99724C"/><path d="M545 182h38v38h-38v-38Z" fill="#C4C4C4"/><path d="M545 182h38v38h-38v-38Z" fill="#99724C"/><path d="M475 486h38v38h-38v-38Zm38-38h38v38h-38v-38Zm38-38h38v38h-38v-38Zm38-38h38v38h-38v-38Zm0-38h38v38h-38v-38Zm0-38h38v38h-38v-38Zm-38-38h38v38h-38v-38Zm-38-38h38v38h-38v-38Zm-38-38h38v38h-38v-38Zm-38-38h38v38h-38v-38Z" fill="#FAFAFA"/><path d="M486 220h10v29h-10v-29Z" fill="#CBA45B"/><path d="M560 153h10v29h-10v-29Z" fill="#FDE595"/><path d="M516 77h22v29h-22V77Z" fill="#9B8585"/><path d="M522 48h10v29h-10V48Z" fill="#CBA45B"/><path d="M627 372h38v38h-38v-38Zm-38 38h38v38h-38v-38Zm-38 38h38v38h-38v-38Zm76-152h38v76h-38v-76Z" fill="#E2E2E2"/><path d="M665 372h38v38h-38v-38Zm-38 38h38v38h-38v-38Zm38-76h38v38h-38v-38Zm-76.5-76h38v38h-38v-38Z" fill="#C4C4C4"/></svg>

<svg width="987" height="641" viewBox="0 0 987 641" fill="none" xmlns="http://www.w3.org/2000/svg">
<rect width="987" height="641" fill="white"/>
<path d="M242 448H318V467H356V486H432V524H543V505H580.5V486H619V467H695V486H657V505H619V562H543V581H394V562L280 562.5V524H242V448Z" fill="#A97E53"/>
<path d="M695 448H733V467H695V448Z" fill="#A97E53"/>
<path d="M733 429H771V448H733V429Z" fill="#A97E53"/>
<path d="M771 410H809V429H771V410Z" fill="#A97E53"/>
<path d="M581 524H619V543H581V524Z" fill="#F27E43"/>
<path d="M619 505H657V524H619V505Z" fill="#F27E43"/>
<path d="M657 486H695V505H657V486Z" fill="#F27E43"/>
<path d="M204 391H242V429H204V391Z" fill="#F27E43"/>
<path d="M204 448H242V486H204V448Z" fill="#F27E43"/>
<path d="M280 448H318V467H280V448Z" fill="#F27E43"/>
<path d="M318 467H356V486H318V467Z" fill="#F27E43"/>
<path d="M242 429H280V448H242V429Z" fill="#F27E43"/>
<path d="M280 505H318V524H280V505Z" fill="#F27E43"/>
<path d="M318 524H356V543H318V524Z" fill="#F27E43"/>
<path d="M356 505H394V524H356V505Z" fill="#F27E43"/>
<path d="M242 486H280V505H242V486Z" fill="#F27E43"/>
<path d="M581 467H619V486H581V467Z" fill="#F27E43"/>
<path d="M619 448H657V467H619V448Z" fill="#F27E43"/>
<path d="M657 429H695V448H657V429Z" fill="#F27E43"/>
<path d="M543 486H581V505H543V486Z" fill="#F27E43"/>
<path d="M505 505H543V524H505V505Z" fill="#F27E43"/>
<path d="M242 410H280V429H242V410Z" fill="#CBA45B"/>
<path d="M280 429H318V448H280V429Z" fill="#CBA45B"/>
<path d="M318 448H394V467H318V448Z" fill="#CBA45B"/>
<path d="M394 467H432V486H394V467Z" fill="#CBA45B"/>
<path d="M242 524H280V543H242V524Z" fill="#CBA45B"/>
<path d="M280 562H394V581H280V562Z" fill="#CBA45B"/>
<path d="M543 562H619V581H543V562Z" fill="#CBA45B"/>
<path d="M394 581H543V600H394V581Z" fill="#CBA45B"/>
<path d="M261 543H280V562H261V543Z" fill="#CBA45B"/>
<path d="M375 467H394V486H375V467Z" fill="#CBA45B"/>
<path d="M619 543H638V562H619V543Z" fill="#CBA45B"/>
<path d="M619 524H657V543H619V524Z" fill="#CBA45B"/>
<path d="M432 486H451V524H432V486Z" fill="#CBA45B"/>
<path d="M451 486H470V505H451V486Z" fill="#CBA45B"/>
<path d="M751 407.5H740V368.5H725V364.5H709V336H691.5V327.5H673V297.5H656.5V291.5H640.5V264H623V259H608V229H589.5M247.5 368H264.5V350H277.5L280 341H299V316H314.5V309.5H332.5V288.5H349V282H368V259H383V249.5H401.5V225.5H417.5V219H436V195H453" stroke="black" stroke-width="2"/>
<path d="M413 211H423V240H413V211Z" fill="#CBA45B"/>
<path d="M747 391H757V429H747V391Z" fill="#CBA45B"/>
<path d="M448 182H458V211H448V182Z" fill="#CBA45B"/>
<path d="M378 240H388V269H378V240Z" fill="#CBA45B"/>
<path d="M344 269H354V298H344V269Z" fill="#CBA45B"/>
<path d="M310 298H320V327H310V298Z" fill="#CBA45B"/>
<path d="M276 327H286V356H276V327Z" fill="#CBA45B"/>
<path d="M242 356H252V410H242V356Z" fill="#CBA45B"/>
<path d="M719 350H729V380H719V350Z" fill="#CBA45B"/>
<path d="M685 315H695V345H685V315Z" fill="#CBA45B"/>
<path d="M651 280H661V310H651V280Z" fill="#CBA45B"/>
<path d="M617 245H627V275H617V245Z" fill="#CBA45B"/>
<path d="M583 210H593V240H583V210Z" fill="#CBA45B"/>
<rect x="551" y="220" width="38" height="38" fill="#E2E2E2"/>
<rect x="445" y="456" width="10" height="30" fill="#FDE595"/>
<rect x="445" y="426" width="10" height="30" fill="#FDE595"/>
<rect x="445" y="396" width="10" height="30" fill="#FDE595"/>
<rect x="445" y="366" width="10" height="30" fill="#FDE595"/>
<rect x="445" y="336" width="10" height="30" fill="#FDE595"/>
<path d="M445 352.5V342.5H475V352.5H445Z" fill="#FDE595"/>
<path d="M445 369.5V359.5H475V369.5H445Z" fill="#FDE595"/>
<path d="M445 389.5V379.5H475V389.5H445Z" fill="#FDE595"/>
<path d="M445 408.5V398.5H475V408.5H445Z" fill="#FDE595"/>
<path d="M445 428.5V418.5H475V428.5H445Z" fill="#FDE595"/>
<path d="M445 446.5V436.5H475V446.5H445Z" fill="#FDE595"/>
<path d="M445 463.5V453.5H475V463.5H445Z" fill="#FDE595"/>
<path d="M445 480.5V470.5H475V480.5H445Z" fill="#FDE595"/>
<path d="M470 448H508V524.5H470V448Z" fill="#C4C4C4"/>
<path d="M470 448H508V524.5H470V448Z" fill="#99724C"/>
<path d="M470 410H508V448H470V410Z" fill="#C4C4C4"/>
<path d="M470 410H508V448H470V410Z" fill="#99724C"/>
<path d="M470 372H508V410H470V372Z" fill="#C4C4C4"/>
<path d="M470 372H508V410H470V372Z" fill="#99724C"/>
<path d="M470 334H508V372H470V334Z" fill="#C4C4C4"/>
<path d="M470 334H508V372H470V334Z" fill="#99724C"/>
<path d="M470 296H508V334H470V296Z" fill="#C4C4C4"/>
<path d="M470 296H508V334H470V296Z" fill="#99724C"/>
<path d="M470 258H508V296H470V258Z" fill="#C4C4C4"/>
<path d="M470 258H508V296H470V258Z" fill="#99724C"/>
<path d="M507 258H545V296H507V258Z" fill="#C4C4C4"/>
<path d="M507 258H545V296H507V258Z" fill="#99724C"/>
<path d="M507 220H545V258H507V220Z" fill="#C4C4C4"/>
<path d="M507 220H545V258H507V220Z" fill="#99724C"/>
<path d="M507 182H545V220H507V182Z" fill="#C4C4C4"/>
<path d="M507 182H545V220H507V182Z" fill="#99724C"/>
<path d="M507 144H545V182H507V144Z" fill="#C4C4C4"/>
<path d="M507 144H545V182H507V144Z" fill="#99724C"/>
<path d="M507 106H545V144H507V106Z" fill="#C4C4C4"/>
<path d="M507 106H545V144H507V106Z" fill="#99724C"/>
<path d="M545 182H583V220H545V182Z" fill="#C4C4C4"/>
<path d="M545 182H583V220H545V182Z" fill="#99724C"/>
<path d="M475 486H513V524H475V486Z" fill="#FAFAFA"/>
<path d="M513 448H551V486H513V448Z" fill="#FAFAFA"/>
<path d="M551 410H589V448H551V410Z" fill="#FAFAFA"/>
<path d="M589 372H627V410H589V372Z" fill="#FAFAFA"/>
<path d="M589 334H627V372H589V334Z" fill="#FAFAFA"/>
<path d="M589 296H627V334H589V296Z" fill="#FAFAFA"/>
<path d="M551 258H589V296H551V258Z" fill="#FAFAFA"/>
<path d="M513 220H551V258H513V220Z" fill="#FAFAFA"/>
<path d="M475 182H513V220H475V182Z" fill="#FAFAFA"/>
<path d="M437 144H475V182H437V144Z" fill="#FAFAFA"/>
<path d="M486 220H496V249H486V220Z" fill="#CBA45B"/>
<path d="M560 153H570V182H560V153Z" fill="#FDE595"/>
<path d="M516 77H538V106H516V77Z" fill="#9B8585"/>
<path d="M522 48H532V77H522V48Z" fill="#CBA45B"/>
<path d="M627 372H665V410H627V372Z" fill="#E2E2E2"/>
<path d="M589 410H627V448H589V410Z" fill="#E2E2E2"/>
<path d="M551 448H589V486H551V448Z" fill="#E2E2E2"/>
<path d="M627 296H665V372H627V296Z" fill="#E2E2E2"/>
<path d="M665 372H703V410H665V372Z" fill="#C4C4C4"/>
<path d="M627 410H665V448H627V410Z" fill="#C4C4C4"/>
<path d="M665 334H703V372H665V334Z" fill="#C4C4C4"/>
<path d="M588.5 258H626.5V296H588.5V258Z" fill="#C4C4C4"/>
</svg>
